svg/girl_1015y_outline.svg

<?xml version="1.0" encoding="UTF-8" standalone="no"?>
<!-- Created with Inkscape (http://www.inkscape.org/) -->
<svg id="svg8" xmlns:rdf="http://www.w3.org/1999/02/22-rdf-syntax-ns#" xmlns="http://www.w3.org/2000/svg" height="48" viewBox="0 0 12.7 12.7" width="48" version="1.1" xmlns:cc="http://creativecommons.org/ns#" xmlns:dc="http://purl.org/dc/elements/1.1/">
 <title id="title4753">UIO-icon</title>
 <metadata id="metadata5">
  <rdf:RDF>
   <cc:Work rdf:about="">
    <dc:format>image/svg+xml</dc:format>
    <dc:type rdf:resource="http://purl.org/dc/dcmitype/StillImage"/>
    <dc:title>UIO-icon</dc:title>
    <dc:creator>
     <cc:Agent>
      <dc:title>Joaquín Urbano</dc:title>
     </cc:Agent>
    </dc:creator>
    <dc:rights>
     <cc:Agent>
      <dc:title>GPL</dc:title>
     </cc:Agent>
    </dc:rights>
   </cc:Work>
  </rdf:RDF>
 </metadata>
 <path id="text4858" d="m20.012 3c0.029425 0.10257 0.066474 0.19606 0.10938 0.2832l0.001953 0.0019531c0.042597 0.086193 0.089914 0.16679 0.14062 0.24219l0.001953 0.0019531c0.30699 0.45535 0.7152 0.75353 0.66797 1.3672-1.2675-0.47669-2.1822-0.18763-3.3555-0.15039-0.28633 0.0090892-0.5834 0.0070037-0.91016-0.029297 0.1942 0.096779 0.37624 0.1628 0.55273 0.2168 0.90184 0.27589 1.6057 0.099166 2.4023 0.37695-3.3228 0.98836-5.2281 3.2688-5.6191 6.7754-0.086341 1.6876-0.094329 3.3809-0.083984 5.0723l-0.21484-0.058594c-0.75754-0.20649-1.0145 0.18027-0.93164 1.4043 0.014633 0.21617 0.054493 0.41786 0.087891 0.62305h-0.015625c0.015709 0.056931 0.024117 0.1113 0.039062 0.16797 0.026534 0.13978 0.060582 0.27274 0.095703 0.40625 0.71082 3.031 0.36792 5.7015-0.13477 8.3164v0.003906c-0.06075 0.25918 0.24158 0.35305 0.51367 0 0.24774-0.29198 0.48883-0.52448 0.72656-0.73047-0.10079 0.91336-0.24506 1.8119-0.41602 2.7012v0.003906c-0.06075 0.25918 0.24158 0.35305 0.51367 0 0.65832-0.77587 1.2786-1.224 1.873-1.459 0.26623 0.82152 0.49617 1.6469 0.69531 2.4746v0.003906c0.051784 0.26112 0.36687 0.22105 0.46875-0.21289 0.28796-1.0105 0.68179-1.6876 1.1445-2.1484 0.59297 0.54795 1.2268 1.0283 1.9004 1.418 2.145 1.0865 4.4582 1.3928 7.3887 0.003906 0.74729-0.39381 1.3978-0.87819 1.9805-1.4238 0.46067 0.46073 0.85366 1.1355 1.1406 2.1426 0.10188 0.43394 0.41697 0.47401 0.46875 0.21289v-0.003906c0.19914-0.82773 0.42908-1.6531 0.69531-2.4746 0.59444 0.23496 1.2147 0.68311 1.873 1.459 0.2721 0.35305 0.57442 0.25918 0.51367 0v-0.003906c-0.17096-0.88929-0.31522-1.7878-0.41602-2.7012 0.23774 0.20599 0.47882 0.43849 0.72656 0.73047 0.2721 0.35305 0.57442 0.25918 0.51367 0v-0.003906c-0.51188-2.6627-0.85958-5.3823-0.095703-8.4824 0.003762-0.013986 0.007943-0.022923 0.011719-0.037109 0.015608-0.068139 0.036086-0.16949 0.054688-0.24805 0.01111-0.041615 0.017775-0.08129 0.029297-0.12305h-0.001953c0.232-0.985 0.523-2.473-0.92-2.04-0.307-2.848 0.057-4.237-0.709-7.1073-0.325-0.9257-0.613-1.4459-1.217-2.2012-0.988-1.2348-2.438-2.1-4.33-2.584-1.011-0.2584-2.537-0.384-4.059-0.3769-0.20853 0.00097169-0.41409 0.0096975-0.62109 0.015625 0.003177-0.0014559 0.00857-0.0024479 0.011719-0.0039063 0.89351-0.80379 1.3387-0.76865 2.4629-1.2012 0.3157-0.12147 0.66007-0.26219 1.1133-0.49023-0.2929 0.094369-0.54496 0.15007-0.77148 0.18555-0.056145 0.0087914-0.10154 0.0096837-0.1543 0.015625-0.162 0.0184-0.317 0.0305-0.453 0.0274-0.054-0.0012-0.104-0.0062-0.154-0.0097-0.123-0.0089-0.242-0.0178-0.35-0.0352-0.043-0.0069-0.087-0.0141-0.129-0.0215-0.141-0.0253-0.28-0.0468-0.414-0.0644-0.047-0.0062-0.098-0.0083-0.146-0.0118-0.083-0.006-0.168-0.0092-0.256-0.0039-0.061145 0.0038155-0.13001 0.022042-0.19531 0.033203-0.083688 0.014225-0.16471 0.021594-0.25781 0.050781-0.15751 0.049518-0.33007 0.12217-0.52539 0.22656-0.232 0.1243-0.493 0.2877-0.801 0.5138-0.283-0.5911-1.155-0.4943-1.796-0.7383-0.006-0.0023-0.012-0.0055-0.018-0.0078-0.078-0.0307-0.154-0.067-0.225-0.1094-0.08-0.0505-0.156-0.1065-0.22-0.1797zm3.873 0.74609c0.067883 0.1543-1.1669 0.79173-1.1504 1.2812 0.00854 0.25336 0.52802 0.22743 1.125 0.22461 1.4453-0.0068277 2.8955 0.11245 3.8555 0.36133 1.7976 0.46606 3.1747 1.299 4.1133 2.4883 0.57403 0.72737 0.84783 1.2295 1.1562 2.1211 0.66968 2.708 0.62105 4.0305 0.71289 6.5449-0.003577 0.005653-0.020992 0.020565-0.023438 0.025391-0.434 0.43-0.533 0.677-0.533 0.677-0.091608-1.1208-0.015651-1.6529-0.43164-2.0625-3.8117-3.7558-5.2074-1.0212-10.77-2.2598-0.049124 0.03036-0.016239 0.2669 0.085938 0.47656 0.090335 0.18536 0.5267 1.1554 0.64258 1.5879 0.26267 0.98039 0.068763 0.90319-0.61523 0.29492-1.5462-1.375-3.0407-1.8966-4.6621-2.4688-0.9748-0.34401-1.251 0.56339-1.3457 0.73633-0.13052 0.23831-0.87907 1.4009-1.0312 2.3828l-0.21289 1.0996-0.37305-0.41016c-0.066069-1.5656-0.094772-2.8859 0.017578-4.5859 0.38145-3.4682 2.2692-5.7013 5.5859-6.6094 0.074765-0.020469 0.40969-0.45474 0.61328-0.32812 0.36587 0.22753 0.65011 0.0001322 0.70898-0.11523 0.32849-0.64373-0.22194-0.95071-0.042969-1.0859 0.57006-0.43073 0.60754 0.86991 1.2734 0.3418 0.53471-0.42407 1.2568-0.8168 1.3008-0.7168zm8.4922 12.008c0.14255 0.1596 0.32441 1.1526 0.41602 2.2734 0.029165 0.35684 0.085382 0.62409 0.125 0.59961 0.039332-0.024308 0.15467-0.21053 0.25781-0.41406s0.31652-0.49482 0.47266-0.64648l0.078125-0.076172c0.003279 0.06932 0.002276 0.092687 0.005859 0.16406 2.2971-0.59967 0.36794 2.7702-0.27734 3.7852-0.3935 0.42209-0.46755 0.55969-0.78906 1.4453-1.1789 2.7284-2.593 5.2806-5.252 6.7012-2.7839 1.3377-4.9798 1.0425-7.0176-0.003906-2.3698-1.3898-4.2663-3.8927-5.3027-6.998-0.18894-0.56613-0.28519-0.73575-0.58398-1.0332-1.134-1.4554-2.0314-4.3389-0.052734-3.8594-0.001144-0.023902-0.0008229-0.040721-0.001953-0.064453l0.03 0.029c0.22922 0.23576 0.4936 0.53516 0.58789 0.66406l0.16992 0.23438 0.005859-0.47852c0.012367-1.3622 0.51138-2.938 1.3125-4.1445 0.33579-0.50573 0.42559-0.51784 1.4004-0.17383 1.6214 0.57219 2.9968 1.418 4.543 2.793 0.684 0.60826 0.71313 0.59114 0.71484-0.42383 0.001311-0.77626-0.13427-1.3635-0.43555-1.8848-0.1167-0.20193-0.26898-0.53247-0.21986-0.56283 5.1027 1.243 5.7467-1.6307 9.8136 2.0745zm-12.07 2.1816c-0.584-0.001-1.057 0.471-1.057 1.054 0.00021895 0.58316 0.47348 1.0555 1.0566 1.0547 0.5824-0.00021925 1.0545-0.47229 1.0547-1.0547-0.00021922-0.5824-0.47229-1.0545-1.0547-1.0547zm7.4414 0.17969c-0.5824 0.00021922-1.0545 0.47229-1.0547 1.0547 0.00021922 0.5824 0.47229 1.0545 1.0547 1.0547 0.5824-0.00021925 1.0545-0.47229 1.0547-1.0547-0.00021925-0.5824-0.47229-1.0545-1.0547-1.0547zm-14.055 3.1523c0.11857 0.16417 0.23827 0.32866 0.37695 0.46484 0.31453 0.30885 0.41439 0.48446 0.61328 1.0723 0.74579 2.2041 1.9228 4.1041 3.3848 5.5547-0.45629 0.44822-0.8442 1.0856-1.0996 2.0273-0.14394-0.85557-0.45648-1.9377-0.5918-2.4141-0.7048 0.16874-1.5141 0.64864-2.252 1.541 0.29504-1.3443 0.31337-1.9045 0.44727-3.1016-0.47422 0.38565-0.71895 0.58643-1.2715 1.127 0.59528-2.2369 0.61549-4.322 0.39258-6.2715zm20.607 0.005859c-0.22125 1.9456-0.19936 4.0261 0.39453 6.2578-0.55253-0.54053-0.79726-0.7413-1.2715-1.127 0.1339 1.1971 0.15223 1.7572 0.44727 3.1016-0.73782-0.89238-1.5471-1.3723-2.252-1.541-0.13532 0.47632-0.44786 1.5585-0.5918 2.4141-0.25505-0.94037-0.64221-1.5772-1.0977-2.0254 1.4182-1.445 2.4009-3.2875 3.252-5.2363 0.33844-0.91954 0.41781-1.0617 0.83203-1.5 0.10859-0.11489 0.19966-0.22793 0.28711-0.34375zm-13.761 4.318c0.031951 1.1772 1.5852 2.1212 3.4902 2.1211 1.9035-0.001255 3.4544-0.94483 3.4863-2.1211-2.7311 1.0274-4.9829 0.84179-6.9766 0zm-7.0918 9.7539c-0.77511 0-1.3696 0.25692-1.7832 0.77148-0.41035 0.51457-0.61523 1.2684-0.61523 2.2617v1.3105c0.00977 0.95423 0.22051 1.686 0.63086 2.1973 0.41035 0.51131 1.0022 0.76758 1.7773 0.76758 0.78488 0 1.382-0.26017 1.7891-0.78125s0.60938-1.2743 0.60938-2.2578v-1.309c-0.01-0.955-0.219-1.686-0.629-2.194-0.411-0.511-1.005-0.767-1.78-0.767zm-4.8454 0.088-2.9454 1.054v1.1484l1.6855-0.52148v5.4414h1.4122v-7.123zm15.379 0-2.9453 1.0547v1.1484l1.6855-0.52148v5.4414h1.4102v-7.123zm3.0879 0.009766-0.41016 3.6152 1.123 0.2793 0.13672-0.12695c0.20843-0.17587 0.48096-0.26562 0.81641-0.26562 0.36476 0 0.64509 0.10927 0.84375 0.32422s0.29883 0.5239 0.29883 0.92773c3e-8 0.42012-0.087157 0.74533-0.25977 0.97656-0.17261 0.22797-0.41717 0.3418-0.73633 0.3418-0.2866 0-0.5201-0.081302-0.69922-0.24414-0.177-0.167-0.281-0.398-0.31-0.694h-1.396c0.013027 0.40384 0.1262 0.76417 0.33789 1.0801 0.21495 0.31591 0.50503 0.56046 0.87305 0.73633 0.36801 0.17261 0.76737 0.25977 1.1973 0.25977 0.49177-1e-8 0.9178-0.10017 1.2793-0.29883 0.3615-0.20192 0.63988-0.48225 0.83203-0.84375 0.19541-0.36476 0.29297-0.77712 0.29297-1.2363 0-0.75557-0.19187-1.3435-0.57617-1.7637-0.3843-0.42012-0.91634-0.63086-1.5938-0.63086-0.37778 0-0.73487 0.090409-1.0703 0.26953l0.17578-1.5293h2.8301v-1.1777zm4.6504 0 2.334 4.5332v2.5801h1.4902v-2.58l2.3359-4.5332h-1.604l-1.478 3.204-1.471-3.205zm-18.271 1.0449c0.34196 0 0.59432 0.13594 0.75391 0.40625 0.16284 0.26705 0.24414 0.69568 0.24414 1.2852v1.6895c-0.006514 0.55691-0.087166 0.96992-0.24023 1.2402-0.15307 0.27031-0.40283 0.40625-0.74805 0.40625-0.34847 0-0.60214-0.13984-0.76172-0.41992-0.15632-0.28334-0.23438-0.71522-0.23438-1.2949v-1.7285c0.00977-0.54388 0.093675-0.94324 0.25-1.1973 0.15958-0.25728 0.40414-0.38672 0.73633-0.38672zm26.732 0.68555c-0.62856 0-1.1385 0.15675-1.5293 0.47266-0.38756 0.31265-0.58203 0.7029-0.58203 1.1719-1e-8 0.80442 0.62961 1.3397 1.8867 1.6035 0.37778 0.078162 0.65096 0.16662 0.82031 0.26758 0.17261 0.097703 0.25977 0.23364 0.25977 0.40625 0 0.1661-0.070896 0.30203-0.21094 0.40625-0.13678 0.10096-0.34102 0.15039-0.61133 0.15039-0.28985 0-0.52075-0.065691-0.69336-0.19922-0.173-0.134-0.265-0.328-0.278-0.579h-1.3398c0 0.31916 0.097563 0.61771 0.29297 0.89453 0.19541 0.27357 0.46468 0.49081 0.80664 0.65039 0.34522 0.15632 0.73872 0.23437 1.1816 0.23438 0.65461 0 1.1899-0.14895 1.6035-0.44531 0.41361-0.29962 0.61914-0.68987 0.61914-1.1719 0-0.67415-0.37139-1.1483-1.1172-1.4219-0.241-0.087933-0.53889-0.16598-0.89062-0.23438-0.35173-0.071649-0.60214-0.15555-0.75195-0.25-0.14655-0.097703-0.21875-0.22453-0.21875-0.38086-1e-8 -0.1661 0.065042-0.30268 0.19531-0.41016 0.13027-0.10747 0.31304-0.16016 0.55078-0.16016 0.27683 0 0.48106 0.065691 0.61133 0.19922 0.13027 0.13027 0.19531 0.29613 0.19531 0.49805h1.4121c1e-8 -0.5048-0.20163-0.91456-0.60547-1.2305-0.40058-0.31591-0.93653-0.47266-1.6074-0.47266zm-23.312 1.7676v1.1387h2.75v-1.1387z" transform="scale(.26458)" stroke-width="3.7795" fill="#333"/>
</svg>

<svg width="48" height="48" viewBox="0 0 48 48" fill="none" xmlns="http://www.w3.org/2000/svg">
<path d="M20.0118 3C20.0412 3.10257 20.0783 3.19606 20.1212 3.2832L20.1231 3.28515C20.1657 3.37134 20.213 3.45194 20.2638 3.52734L20.2657 3.52929C20.5727 3.98463 20.9809 4.28281 20.9337 4.89647C19.6662 4.41979 18.7515 4.70884 17.5782 4.74608C17.2919 4.75517 16.9948 4.75309 16.6681 4.71679C16.8623 4.81357 17.0443 4.87959 17.2208 4.93358C18.1226 5.20947 18.8265 5.03275 19.6231 5.31053C16.3003 6.29888 14.395 8.57929 14.004 12.0858C13.9177 13.7734 13.9097 15.4667 13.92 17.1581L13.7052 17.0995C12.9477 16.893 12.6907 17.2798 12.7736 18.5038C12.7882 18.7199 12.8281 18.9216 12.8615 19.1268H12.8458C12.8615 19.1837 12.87 19.2381 12.8849 19.2948C12.9114 19.4346 12.9455 19.5675 12.9806 19.701C13.6914 22.732 13.3485 25.4025 12.8458 28.0173V28.0212C12.7851 28.2804 13.0874 28.3743 13.3595 28.0212C13.6072 27.7293 13.8483 27.4968 14.086 27.2908C13.9853 28.2041 13.841 29.1026 13.67 29.9919V29.9958C13.6093 30.255 13.9116 30.3489 14.1837 29.9958C14.842 29.22 15.4623 28.7719 16.0567 28.5369C16.3229 29.3584 16.5528 30.1837 16.752 31.0114V31.0153C16.8038 31.2764 17.1188 31.2364 17.2207 30.8024C17.5087 29.792 17.9025 29.1149 18.3652 28.6541C18.9582 29.202 19.592 29.6824 20.2656 30.0721C22.4106 31.1585 24.7237 31.4648 27.6542 30.076C28.4015 29.6822 29.052 29.1978 29.6347 28.6522C30.0953 29.1129 30.4883 29.7877 30.7753 30.7947C30.8771 31.2287 31.1922 31.2688 31.244 31.0076V31.0037C31.4431 30.176 31.6731 29.3507 31.9393 28.5292C32.5337 28.7641 33.154 29.2123 33.8123 29.9881C34.0844 30.3412 34.3867 30.2473 34.3259 29.9881V29.9842C34.155 29.095 34.0107 28.1965 33.9099 27.2831C34.1477 27.4891 34.3887 27.7216 34.6365 28.0135C34.9086 28.3666 35.2109 28.2727 35.1501 28.0135V28.0096C34.6383 25.347 34.2906 22.6274 35.0544 19.5273C35.0582 19.5133 35.0624 19.5044 35.0662 19.4902C35.0818 19.4221 35.1022 19.3207 35.1208 19.2422C35.132 19.2006 35.1386 19.1609 35.1501 19.1191H35.1482C35.3802 18.1341 35.6712 16.6462 34.2282 17.0792C33.9212 14.2312 34.2852 12.8422 33.5192 9.97194C33.1942 9.04626 32.9062 8.52606 32.3022 7.77077C31.3142 6.53599 29.8643 5.6708 27.9723 5.1868C26.9613 4.92841 25.4353 4.80281 23.9133 4.80991C23.7048 4.81088 23.4992 4.81961 23.2922 4.82553C23.2954 4.82408 23.3008 4.82309 23.304 4.82163C24.1975 4.01785 24.6426 4.05299 25.7668 3.62044C26.0825 3.49897 26.4269 3.35826 26.8801 3.13022C26.5872 3.22459 26.3352 3.28029 26.1086 3.31577C26.0525 3.32456 26.0071 3.32545 25.9543 3.33139C25.7924 3.34979 25.6374 3.36189 25.5014 3.35879C25.4474 3.35759 25.3974 3.35259 25.3474 3.34909C25.2244 3.34019 25.1054 3.33129 24.9974 3.31389C24.9544 3.30699 24.9104 3.29979 24.8684 3.29239C24.7274 3.26709 24.5884 3.24559 24.4544 3.22799C24.4074 3.22179 24.3564 3.21969 24.3084 3.21619C24.2254 3.21019 24.1404 3.20699 24.0524 3.21229C23.9912 3.21611 23.9224 3.23433 23.8571 3.2455C23.7734 3.25972 23.6924 3.26709 23.5993 3.29628C23.4418 3.34579 23.2692 3.41844 23.0739 3.52283C22.8419 3.64713 22.5809 3.81053 22.2729 4.03663C21.9899 3.44553 21.1179 3.54233 20.4769 3.29834C20.4709 3.29604 20.4649 3.29284 20.4589 3.29054C20.3809 3.25984 20.3049 3.22354 20.2339 3.18114C20.1539 3.13064 20.0779 3.07464 20.0139 3.00144L20.0118 3ZM23.8848 3.74608C23.9526 3.90038 22.7179 4.5378 22.7344 5.02726C22.7429 5.28062 23.2624 5.25469 23.8594 5.25187C25.3046 5.24504 26.7548 5.36432 27.7148 5.6132C29.5124 6.07925 30.8895 6.91218 31.8281 8.10147C32.4021 8.82883 32.6759 9.33095 32.9842 10.2225C33.6539 12.9305 33.6053 14.253 33.6971 16.7674C33.6935 16.773 33.6761 16.7879 33.6737 16.7927C33.2397 17.2227 33.1407 17.4697 33.1407 17.4697C33.0491 16.349 33.125 15.8169 32.7091 15.4073C28.8974 11.6515 27.5017 14.3861 21.9392 13.1475C21.8901 13.1779 21.923 13.4144 22.0251 13.624C22.1155 13.8094 22.5518 14.7794 22.6677 15.2119C22.9304 16.1923 22.7365 16.1151 22.0525 15.5068C20.5063 14.1319 19.0118 13.6103 17.3904 13.0381C16.4156 12.6941 16.1395 13.6015 16.0448 13.7744C15.9142 14.0127 15.1657 15.1753 15.0136 16.1572L14.8007 17.2568L14.4276 16.8466C14.3616 15.281 14.3329 13.9607 14.4452 12.2608C14.8267 8.7926 16.7144 6.55953 20.031 5.65144C20.1058 5.63097 20.4407 5.1967 20.6443 5.32332C21.0102 5.55085 21.2944 5.32345 21.3533 5.20809C21.6818 4.56437 21.1313 4.2574 21.3103 4.12221C21.8804 3.69148 21.9178 4.99211 22.5837 4.464C23.1184 4.03994 23.8405 3.64721 23.8845 3.74721L23.8848 3.74608ZM32.3768 15.7539C32.5194 15.9135 32.7013 16.9065 32.7929 18.0273C32.822 18.3841 32.8782 18.6514 32.9179 18.6269C32.9572 18.6026 33.0725 18.4164 33.1757 18.2128C33.2788 18.0093 33.4922 17.718 33.6483 17.5664L33.7264 17.4902C33.7297 17.5595 33.7287 17.5829 33.7323 17.6543C36.0294 17.0546 34.1002 20.4244 33.455 21.4394C33.0615 21.8615 32.9874 21.9991 32.6659 22.8847C31.487 25.6131 30.073 28.1652 27.414 29.5858C24.6301 30.9235 22.4342 30.6283 20.3965 29.5819C18.0267 28.1921 16.1302 25.6893 15.0938 22.584C14.9049 22.0179 14.8087 21.8483 14.5099 21.5508C13.3759 20.0954 12.4785 17.212 14.4571 17.6915C14.456 17.6676 14.4563 17.6507 14.4552 17.627L14.4852 17.656C14.7144 17.8918 14.9788 18.1912 15.0731 18.3201L15.243 18.5544L15.2488 18.0759C15.2612 16.7137 15.7602 15.138 16.5613 13.9315C16.8971 13.4257 16.9869 13.4136 17.9617 13.7576C19.5831 14.3298 20.9585 15.1756 22.5046 16.5506C23.1886 17.1589 23.2178 17.1417 23.2195 16.1268C23.2208 15.3505 23.0852 14.7633 22.7839 14.242C22.6672 14.0401 22.515 13.7095 22.5641 13.6792C27.6667 14.9222 28.3107 12.0485 32.3776 15.7537L32.3768 15.7539ZM20.307 17.9355C19.723 17.9345 19.25 18.4065 19.25 18.9895C19.2502 19.5726 19.7235 20.045 20.3066 20.0442C20.889 20.044 21.3611 19.5719 21.3613 18.9895C21.3611 18.4071 20.889 17.935 20.3066 17.9348L20.307 17.9355ZM27.7483 18.1152C27.1659 18.1154 26.6938 18.5875 26.6936 19.1699C26.6938 19.7523 27.1659 20.2244 27.7483 20.2246C28.3307 20.2243 28.8028 19.7523 28.803 19.1699C28.8028 18.5875 28.3307 18.1154 27.7483 18.1152ZM13.6935 21.2675C13.8121 21.4316 13.9317 21.5961 14.0704 21.7323C14.385 22.0411 14.4848 22.2167 14.6837 22.8046C15.4295 25.0086 16.6065 26.9086 18.0685 28.3592C17.6122 28.8074 17.2243 29.4448 16.9689 30.3865C16.8249 29.5309 16.5124 28.4488 16.3771 27.9724C15.6723 28.1411 14.863 28.621 14.1251 29.5134C14.4201 28.1691 14.4385 27.6089 14.5724 26.4118C14.0982 26.7975 13.8534 26.9982 13.3009 27.5388C13.8962 25.3019 13.9164 23.2169 13.6935 21.2674V21.2675ZM34.3002 21.2733C34.079 23.2189 34.1009 25.2994 34.6947 27.531C34.1422 26.9905 33.8975 26.7897 33.4233 26.404C33.5572 27.6011 33.5755 28.1612 33.8705 29.5056C33.1327 28.6132 32.3234 28.1333 31.6186 27.9646C31.4832 28.4409 31.1707 29.5231 31.0268 30.3787C30.7717 29.4383 30.3846 28.8015 29.9291 28.3533C31.3473 26.9083 32.3299 25.0659 33.181 23.1171C33.5195 22.1976 33.5988 22.0554 34.0131 21.6171C34.1216 21.5022 34.2127 21.3892 34.3002 21.2734V21.2733ZM20.5394 25.5913C20.5713 26.7684 22.1246 27.7124 24.0296 27.7123C25.933 27.7111 27.4839 26.7675 27.5158 25.5913C24.7847 26.6186 22.533 26.433 20.5393 25.5913H20.5394ZM13.4477 35.345C12.6726 35.345 12.0781 35.6019 11.6645 36.1165C11.2542 36.6311 11.0493 37.3849 11.0493 38.3782V39.6887C11.0591 40.6429 11.2698 41.3746 11.6801 41.8859C12.0905 42.3972 12.6823 42.6535 13.4574 42.6535C14.2423 42.6535 14.8394 42.3933 15.2465 41.8723C15.6536 41.3512 15.8559 40.598 15.8559 39.6145V38.3055C15.8459 37.3505 15.6369 36.6195 15.2269 36.1115C14.8159 35.6005 14.2219 35.3445 13.4469 35.3445L13.4477 35.345ZM8.60235 35.433L5.65698 36.487V37.6354L7.34246 37.1139V42.5553H8.75464V35.4323L8.60235 35.433ZM23.9812 35.433L21.0359 36.4877V37.6361L22.7214 37.1146V42.556H24.1316V35.4331L23.9812 35.433ZM27.069 35.4428L26.6589 39.058L27.7818 39.3372L27.9186 39.2103C28.127 39.0344 28.3995 38.9447 28.735 38.9447C29.0997 38.9447 29.38 39.054 29.5787 39.2689C29.7774 39.4838 29.8775 39.7928 29.8775 40.1966C29.8775 40.6167 29.7904 40.9419 29.6178 41.1732C29.4452 41.4011 29.2006 41.515 28.8814 41.515C28.5948 41.515 28.3613 41.4337 28.1822 41.2708C28.0052 41.1038 27.9012 40.8728 27.8722 40.5768H26.4763C26.4893 40.9807 26.6025 41.341 26.8141 41.6569C27.0291 41.9728 27.3192 42.2174 27.6872 42.3932C28.0552 42.5658 28.4545 42.653 28.8845 42.653C29.3762 42.653 29.8023 42.5528 30.1637 42.3542C30.5252 42.1523 30.8036 41.8719 30.9958 41.5104C31.1912 41.1457 31.2887 40.7333 31.2887 40.2742C31.2887 39.5186 31.0969 38.9307 30.7126 38.5105C30.3283 38.0904 29.7962 37.8796 29.1188 37.8796C28.741 37.8796 28.3839 37.97 28.0485 38.1491L28.2243 36.6199H31.0543V35.4422L27.069 35.4428ZM31.7194 35.4428L34.0533 39.9759V42.556H35.5435V39.976L37.8794 35.4429H36.2754L34.7974 38.6469L33.3264 35.4419L31.7194 35.4428ZM13.4486 36.4877C13.7905 36.4877 14.0429 36.6236 14.2025 36.8939C14.3653 37.161 14.4466 37.5896 14.4466 38.1791V39.8686C14.4401 40.4255 14.3595 40.8385 14.2064 41.1088C14.0533 41.3791 13.8036 41.515 13.4584 41.515C13.1099 41.515 12.8562 41.3752 12.6966 41.0951C12.5403 40.8118 12.4623 40.3799 12.4623 39.8002V38.0717C12.472 37.5279 12.5559 37.1285 12.7123 36.8745C12.8718 36.6172 13.1164 36.4877 13.4486 36.4877ZM40.1802 37.1732C39.5517 37.1732 39.0418 37.33 38.651 37.6459C38.2634 37.9585 38.0689 38.3488 38.0689 38.8178C38.0689 39.6222 38.6985 40.1574 39.9556 40.4212C40.3334 40.4994 40.6066 40.5879 40.7759 40.6888C40.9485 40.7865 41.0357 40.9225 41.0357 41.0951C41.0357 41.2612 40.9648 41.3971 40.8248 41.5013C40.688 41.6023 40.4837 41.6517 40.2134 41.6517C39.9236 41.6517 39.6927 41.586 39.5201 41.4525C39.3471 41.3185 39.2551 41.1245 39.2421 40.8735H37.9023C37.9023 41.1926 37.9999 41.4912 38.1953 41.768C38.3907 42.0416 38.6599 42.2588 39.0019 42.4184C39.3471 42.5747 39.7406 42.6528 40.1835 42.6528C40.8381 42.6528 41.3734 42.5038 41.787 42.2075C42.2006 41.9078 42.4061 41.5176 42.4061 41.0356C42.4061 40.3614 42.0347 39.8873 41.2889 39.6137C41.0479 39.5258 40.75 39.4477 40.3983 39.3793C40.0466 39.3077 39.7962 39.2238 39.6464 39.1293C39.4998 39.0316 39.4276 38.9048 39.4276 38.7485C39.4276 38.5824 39.4926 38.4458 39.6229 38.3383C39.7532 38.2308 39.936 38.1782 40.1737 38.1782C40.4505 38.1782 40.6547 38.2438 40.785 38.3774C40.9153 38.5076 40.9803 38.6735 40.9803 38.8754H42.3924C42.3924 38.3706 42.1908 37.9609 41.7869 37.6449C41.3864 37.329 40.8504 37.1723 40.1796 37.1723L40.1802 37.1732ZM16.8685 38.9408V40.0795H19.6185V38.9408H16.8685Z" fill="#333333"/>
</svg>
